X: 1
T: Casadh An Tsgin
M: 4/4
L: 1/8
R: reel
K: Gmaj
|:(3GAB|cEED EFGE|DE (3GAB c3A|BAGE D2EG|
A2AB ADGA|BAGE DEDE|G2GA G2:|
|:Bd|e2ed efge|dB (3GAB c3A|BAGE D2EG|
A2AB ADGA|BAGE DEDE|G2GA G2:|
